X: 19360
T: Jack The Lighthouse's
R: reel
M: 4/4
K: Dmajor
AddB cABG|AddB cdeg|AddB cABG|AFEG FD D2:|
fgfe dedB|ABAF ABde|fgfe dcdB|AFEG FDDe|
~f3e dcdB|ABAF ABde|faec dBAG|FAEG FD D2||

